X:1
T:Title
%%score [ 1 2 3 4 ]
L:1/8
Q:1/4=120
M:2/2
K:G
V:1 treble nm="S."
V:2 treble nm="A."
V:3 treble-8 nm="T."
V:4 bass nm="B."
V:1
"^The Tempest""^V i 88" B3 c d2 A2 | B2 (AG)"^Where the bee sucks" d4- | d2 BB e2 d2 | %3
w: Where the bee sucks,|there suck * I:|* in a cow- slip's|
"^Robert Johnson""^c.1583 - 1633""^arr. A.S." d2 ^c2 d4 |[M:2/2] A3 A F2 D2 | G2 F2 E2 AB | %6
w: bell I lie,|there I couch when|owls do cry. On the|
 ^c2 d2 e3 d | d4 d3 !courtesy!=c | (BA) (cB) A3 G | G8 ::[M:6/8] Bcd ABc | GAB A3 | %12
w: bat's back I do|fly, af- ter|sum * mer * mer- ri-|ly:|mer- ri- ly, mer- ri- ly|shall I live now,|
 AFE G (A/G/)F | EFE D3 | ABc Bcd | ^cde d3 | dBA !courtesy!=c (d/c/)B | ABA G3 :| %18
w: un- der the blos- som * that|hangs on the bough,|mer- ri- ly, mer- ri- ly|shall I live now,|un- der the blos- som * that|hangs on the bough.|
V:2
 G3 G A2 A2 | D2 E2 F4- | F2 GG G2 F2 | E3 E D4 |[M:2/2] D2 E2 D2 D2 | (DE) D2 ^C2 CD | %6
w: Where the bee sucks,|there suck I:|* in a cow- slip's|bell I lie,|there I couch when|owls * do cry. On the|
 E2 F2 ^C2 E2 | F4 D3 D | D2 E2 D2 D2 | B,8 ::[M:6/8] GGG DDD | EED D3 | DDE DED | ED^C D3 | %14
w: bat's back I do|fly, af- ter|sum- mer mer- ri-|ly:|mer- ri- ly, mer- ri- ly|shall I live now,|un- der the blos- som that|hangs on the bough,|
 DDE E (E/F/)G | AE^C D3 | FGA GDD | DDD B,3 :| %18
w: mer- ri- ly, mer- ri * ly|shall I live now,|un- der the blos- som that|hangs on the bough.|
V:3
 d2 (cB) A2 d2 | d2 ^c2 d4- | d2 dd !courtesy!=c2 A2 | A3 A F4 |[M:2/2][K:treble-8] F2 E2 (FG) A2 | %5
w: Where the * bee sucks,|there suck I:|* in a cow- slip's|bell I lie,|there I couch * when|
 (BA) (AB) ^c2 AA | A2 A2 A2 A2 | A4 F3 F | G2 G2 F3 G | G8 ::[M:6/8][K:treble-8] dcB cBA | %11
w: owls * do * cry. On the|bat's back I do|fly, af- ter|sum- mer mer- ri-|ly:|mer- ri- ly, mer- ri- ly|
 BAG F3 | (F/G/)AA BA (A/B/) | ^cBA F3 | FFA G (G/A/)B | (e/d/) (!courtesy!=c/B/) (A/G/) F3 | %16
w: shall I live now,|un * der the blos- som that *|hangs on the bough,|mer- ri- ly, mer- ri * ly|shall * I * live * now,|
 A (B/c/)d GAG | FEF G3 :| %18
w: un- der * the blos- som that|hangs on the bough.|
V:4
 G,3 G, F,2 F,2 | G,2 E,2 D,4- | D,2 G,G, C,2 D,2 | A,,3 A,, D,4 |[M:2/2] D,2 ^C,2 D,2 D,2 | %5
w: Where the bee sucks,|there suck I:|* in a cow- slip's|bell I lie,|there I couch when|
 (B,,^C,) D,2 A,,2 A,,A,, | A,2"^This edition""^?""^Andrew Sims 2002" D,2 A,,3 A,, | D,4 D,3 D, | %8
w: owls * do cry. On the|bat's back I do|fly, af- ter|
 G,2 C,2 D,3 D, | G,,8 ::[M:6/8] G,G,G, F,F,F, | E,E, (B,,/C,/) D,3 | D,D,^C, B,,C,D, | %13
w: sum- mer mer- ri-|ly:|mer- ri- ly, mer- ri- ly|shall I live * now,|un- der the blos- som that|
 A,,G,,A,, D,3 | D,D,A,, E,E,B,, | A,,A,,A,, D,3 | D,G,F, E,F,G, | D,C,D, G,,3 :| %18
w: hangs on the bough,|mer- ri- ly, mer- ri- ly|shall I live now,|un- der the blos- som that|hangs on the bough,|

